src/assets/filled/BinanceCoin.svg

<svg width="24" height="24" viewBox="0 0 24 24"  xmlns="http://www.w3.org/2000/svg">
<path d="M11.65 2.34953L6.35996 7.63953C6.15996 7.83953 6.15996 8.14953 6.35996 8.34953L7.64995 9.63953C7.84995 9.83953 8.15996 9.83953 8.35996 9.63953L11.65 6.34953C11.85 6.14953 12.16 6.14953 12.36 6.34953L15.65 9.63953C15.85 9.83953 16.16 9.83953 16.36 9.63953L17.65 8.34953C17.85 8.14953 17.85 7.83953 17.65 7.63953L12.36 2.34953C12.16 2.15953 11.84 2.15953 11.65 2.34953Z" />
<path d="M11.65 21.6509L6.35996 16.3609C6.15996 16.1609 6.15996 15.8509 6.35996 15.6509L7.64995 14.3609C7.84995 14.1609 8.15996 14.1609 8.35996 14.3609L11.65 17.6509C11.85 17.8509 12.16 17.8509 12.36 17.6509L15.65 14.3609C15.85 14.1609 16.16 14.1609 16.36 14.3609L17.65 15.6509C17.85 15.8509 17.85 16.1609 17.65 16.3609L12.36 21.6509C12.16 21.8409 11.84 21.8409 11.65 21.6509Z" />
<path d="M20.1 10.0995L21.6399 11.6395C21.8399 11.8395 21.8399 12.1495 21.6399 12.3495L20.1 13.8895C19.9 14.0895 19.5899 14.0895 19.3899 13.8895L17.85 12.3495C17.65 12.1495 17.65 11.8395 17.85 11.6395L19.3899 10.0995C19.5899 9.90953 19.91 9.90953 20.1 10.0995Z" />
<path d="M4.59995 10.0995L6.13994 11.6395C6.33994 11.8395 6.33994 12.1495 6.13994 12.3495L4.59995 13.8895C4.39995 14.0895 4.08994 14.0895 3.88994 13.8895L2.34995 12.3495C2.14995 12.1495 2.14995 11.8395 2.34995 11.6395L3.88994 10.0995C4.08994 9.90953 4.40995 9.90953 4.59995 10.0995Z" />
<path d="M12.35 9.88047L14.12 11.6505C14.32 11.8505 14.32 12.1605 14.12 12.3605L12.35 14.1305C12.15 14.3305 11.84 14.3305 11.64 14.1305L9.86997 12.3605C9.66997 12.1605 9.66997 11.8505 9.86997 11.6505L11.64 9.88047C11.84 9.68047 12.16 9.68047 12.35 9.88047Z" />
</svg>

<?xml version="1.0" encoding="UTF-8"?>
<svg width="24" height="24" viewBox="0 0 24 24" xmlns="http://www.w3.org/2000/svg">
 <path d="m11.65 2.3495-5.29 5.29c-0.2 0.2-0.2 0.51 0 0.71l1.29 1.29c0.2 0.2 0.51001 0.2 0.71001 0l3.29-3.29c0.2-0.2 0.51-0.2 0.71 0l3.29 3.29c0.2 0.2 0.51 0.2 0.71 0l1.29-1.29c0.2-0.2 0.2-0.51 0-0.71l-5.29-5.29c-0.2-0.19-0.52-0.19-0.71 0z"/>
 <path d="m11.65 21.651-5.29-5.29c-0.2-0.2-0.2-0.51 0-0.71l1.29-1.29c0.2-0.2 0.51001-0.2 0.71001 0l3.29 3.29c0.2 0.2 0.51 0.2 0.71 0l3.29-3.29c0.2-0.2 0.51-0.2 0.71 0l1.29 1.29c0.2 0.2 0.2 0.51 0 0.71l-5.29 5.29c-0.2 0.19-0.52 0.19-0.71 0z"/>
 <path d="m20.1 10.1 1.5399 1.54c0.2 0.2 0.2 0.51 0 0.71l-1.5399 1.54c-0.2 0.2-0.5101 0.2-0.7101 0l-1.5399-1.54c-0.2-0.2-0.2-0.51 0-0.71l1.5399-1.54c0.2-0.18997 0.5201-0.18997 0.7101 0z"/>
 <path d="m4.6 10.1 1.54 1.54c0.2 0.2 0.2 0.51 0 0.71l-1.54 1.54c-0.2 0.2-0.51001 0.2-0.71001 0l-1.54-1.54c-0.2-0.2-0.2-0.51 0-0.71l1.54-1.54c0.2-0.18997 0.52001-0.18997 0.71001 0z"/>
 <path d="m12.35 9.8805 1.77 1.77c0.2 0.2 0.2 0.51 0 0.71l-1.77 1.77c-0.2 0.2-0.51 0.2-0.71 0l-1.77-1.77c-0.2-0.2-0.2-0.51 0-0.71l1.77-1.77c0.2-0.2 0.52-0.2 0.71 0z"/>
</svg>
